packages/icons/svg/Project_MakeProject_24px.svg

<svg xmlns="http://www.w3.org/2000/svg" viewBox="0 0 24 24"><path d="M10.15 8.61a3.11 3.11 0 00-.38-3.45 3 3 0 00-3.52-.63 4.65 4.65 0 00-1.91 1.38 8.66 8.66 0 01.16-3.29.5.5 0 00-.37-.62.5.5 0 00-.6.37A8.8 8.8 0 003.59 7a11.58 11.58 0 00-.51 8.62.51.51 0 00.48.34.45.45 0 00.16 0 .5.5 0 00.28-.62 11 11 0 01.12-7.08l.11.16A3.75 3.75 0 007 10.05a3 3 0 003.15-1.44zm-5.07-.76a3.37 3.37 0 01-.38-.7 3.84 3.84 0 011.9-1.68 2.08 2.08 0 012.4.35 2.13 2.13 0 01.25 2.32 2 2 0 01-2.2.92 2.75 2.75 0 01-1.97-1.21zM21.21 7.09l-2.8-2.8a1 1 0 00-1.42 0l-10.5 10.5a1 1 0 00-.27.51l-.7 3.5a1 1 0 00.27.91 1 1 0 00.71.29h.2l3.5-.7a1 1 0 00.51-.27l10.5-10.5a1 1 0 000-1.44zm-10.86 9.45L9 15.15l7-7 1.39 1.39zm-2.58 1.19L8.12 16l.13-.13 1.39 1.39-.13.13zm10.28-8.89l-1.39-1.39 1-1 1.43 1.35z"/></svg>

<svg xmlns="http://www.w3.org/2000/svg" viewBox="0 0 24 24"><defs></defs><g id="Calque_5" ><path  d="M10.15,8.61a3.11,3.11,0,0,0-.38-3.45,3,3,0,0,0-3.52-.63A4.65,4.65,0,0,0,4.34,5.91,8.66,8.66,0,0,1,4.5,2.62.5.5,0,0,0,4.13,2a.5.5,0,0,0-.6.37A8.8,8.8,0,0,0,3.59,7a11.58,11.58,0,0,0-.51,8.62.51.51,0,0,0,.48.34.45.45,0,0,0,.16,0A.5.5,0,0,0,4,15.34a11,11,0,0,1,.12-7.08l.11.16A3.75,3.75,0,0,0,7,10.05,3,3,0,0,0,10.15,8.61ZM5.08,7.85a3.37,3.37,0,0,1-.38-.7A3.84,3.84,0,0,1,6.6,5.47,2.08,2.08,0,0,1,9,5.82a2.13,2.13,0,0,1,.25,2.32,2,2,0,0,1-2.2.92A2.75,2.75,0,0,1,5.08,7.85Z"/><path  d="M21.21,7.09l-2.8-2.8a1,1,0,0,0-1.42,0L6.49,14.79a1,1,0,0,0-.27.51l-.7,3.5a1,1,0,0,0,.27.91A1,1,0,0,0,6.5,20l.2,0,3.5-.7a1,1,0,0,0,.51-.27l10.5-10.5A1,1,0,0,0,21.21,7.09ZM10.35,16.54,9,15.15l7-7,1.39,1.39ZM7.77,17.73,8.12,16l.13-.13,1.39,1.39-.13.13ZM18.05,8.84,16.66,7.45l1-1L19.09,7.8Z"/></g></svg>
